docs/reference/data-models/img/resource.svg

<svg xmlns="http://www.w3.org/2000/svg" xmlns:xlink="http://www.w3.org/1999/xlink" width="197" height="219" contentScriptType="application/ecmascript" contentStyleType="text/css" style="width:197px;height:219px;background:#00000000" preserveAspectRatio="none" version="1.1" viewBox="0 0 197 219" zoomAndPan="magnify"><g><rect id="resource" width="183" height="205.685" x="7" y="7" fill="#3d176e" codeLine="18" rx="2.5" ry="2.5" style="stroke:#000d19;stroke-width:1.5"/><ellipse cx="56.25" cy="25.5" fill="#e98df7" rx="11" ry="11" style="stroke:#000d19;stroke-width:1"/><path fill="#000" d="M58.7231,31.6431 Q58.1421,31.9419 57.5029,32.0913 Q56.8638,32.2407 56.1582,32.2407 Q53.6514,32.2407 52.3315,30.5889 Q51.0117,28.937 51.0117,25.8159 Q51.0117,22.6865 52.3315,21.0347 Q53.6514,19.3828 56.1582,19.3828 Q56.8638,19.3828 57.5112,19.5322 Q58.1587,19.6816 58.7231,19.9805 L58.7231,22.7031 Q58.0923,22.1221 57.4988,21.8523 Q56.9053,21.5825 56.2744,21.5825 Q54.9297,21.5825 54.2449,22.6492 Q53.5601,23.7158 53.5601,25.8159 Q53.5601,27.9077 54.2449,28.9744 Q54.9297,30.041 56.2744,30.041 Q56.9053,30.041 57.4988,29.7712 Q58.0923,29.5015 58.7231,28.9204 Z"/><text x="81.75" y="30.09" fill="#d9b8ff" font-family="Helvetica" font-size="17" lengthAdjust="spacing" textLength="66">resource</text><line style="stroke:#000d19;stroke-width:1.5" x1="8" x2="189" y1="44" y2="44"/><text x="18" y="63.635" fill="#d9b8ff" font-family="sans-serif" font-size="11" font-weight="bold" lengthAdjust="spacing" textLength="11">id</text><text x="29" y="63.635" fill="#d9b8ff" font-family="sans-serif" font-size="11" lengthAdjust="spacing" textLength="38">: string</text><text x="18" y="86.59" fill="#d9b8ff" font-family="sans-serif" font-size="11" font-weight="bold" lengthAdjust="spacing" textLength="30">name</text><text x="48" y="86.59" fill="#d9b8ff" font-family="sans-serif" font-size="11" lengthAdjust="spacing" textLength="38">: string</text><text x="18" y="109.545" fill="#d9b8ff" font-family="sans-serif" font-size="11" font-weight="bold" lengthAdjust="spacing" textLength="25">kind</text><text x="43" y="109.545" fill="#d9b8ff" font-family="sans-serif" font-size="11" lengthAdjust="spacing" textLength="38">: string</text><text x="18" y="132.5" fill="#d9b8ff" font-family="sans-serif" font-size="11" font-weight="bold" lengthAdjust="spacing" textLength="23">tags</text><text x="41" y="132.5" fill="#d9b8ff" font-family="sans-serif" font-size="11" lengthAdjust="spacing" textLength="138">: dictionary[string, string]</text><text x="18" y="155.455" fill="#d9b8ff" font-family="sans-serif" font-size="11" font-weight="bold" lengthAdjust="spacing" textLength="31">ctime</text><text x="49" y="155.455" fill="#d9b8ff" font-family="sans-serif" font-size="11" lengthAdjust="spacing" textLength="52">: datetime</text><text x="18" y="178.41" fill="#d9b8ff" font-family="sans-serif" font-size="11" font-weight="bold" lengthAdjust="spacing" textLength="36">mtime</text><text x="54" y="178.41" fill="#d9b8ff" font-family="sans-serif" font-size="11" lengthAdjust="spacing" textLength="52">: datetime</text><text x="18" y="201.365" fill="#d9b8ff" font-family="sans-serif" font-size="11" font-weight="bold" lengthAdjust="spacing" textLength="31">atime</text><text x="49" y="201.365" fill="#d9b8ff" font-family="sans-serif" font-size="11" lengthAdjust="spacing" textLength="52">: datetime</text></g></svg>

<svg xmlns="http://www.w3.org/2000/svg" width="197" height="219" preserveAspectRatio="none" style="width:197px;height:219px;background:#00000000"><rect width="183" height="205.685" x="7" y="7" fill="#3d176e" rx="2.5" ry="2.5" style="stroke:#000d19;stroke-width:1.5"/><circle cx="56.25" cy="25.5" r="11" fill="#e98df7" style="stroke:#000d19;stroke-width:1"/><path d="M58.723 31.643q-.58.299-1.22.448-.64.15-1.345.15-2.507 0-3.827-1.652-1.32-1.652-1.32-4.773 0-3.13 1.32-4.781 1.32-1.652 3.827-1.652.706 0 1.353.15.648.149 1.212.447v2.723q-.63-.58-1.224-.85t-1.225-.27q-1.344 0-2.03 1.066-.684 1.067-.684 3.167 0 2.092.685 3.158.685 1.067 2.03 1.067.63 0 1.224-.27.593-.27 1.224-.85Z"/><text x="81.75" y="30.09" fill="#d9b8ff" font-family="Helvetica" font-size="17" textLength="66">resource</text><path d="M8 44h181" style="stroke:#000d19;stroke-width:1.5"/><text x="18" y="63.635" fill="#d9b8ff" font-family="sans-serif" font-size="11" font-weight="bold" textLength="11">id</text><text x="29" y="63.635" fill="#d9b8ff" font-family="sans-serif" font-size="11" textLength="38">: string</text><text x="18" y="86.59" fill="#d9b8ff" font-family="sans-serif" font-size="11" font-weight="bold" textLength="30">name</text><text x="48" y="86.59" fill="#d9b8ff" font-family="sans-serif" font-size="11" textLength="38">: string</text><text x="18" y="109.545" fill="#d9b8ff" font-family="sans-serif" font-size="11" font-weight="bold" textLength="25">kind</text><text x="43" y="109.545" fill="#d9b8ff" font-family="sans-serif" font-size="11" textLength="38">: string</text><text x="18" y="132.5" fill="#d9b8ff" font-family="sans-serif" font-size="11" font-weight="bold" textLength="23">tags</text><text x="41" y="132.5" fill="#d9b8ff" font-family="sans-serif" font-size="11" textLength="138">: dictionary[string, string]</text><text x="18" y="155.455" fill="#d9b8ff" font-family="sans-serif" font-size="11" font-weight="bold" textLength="31">ctime</text><text x="49" y="155.455" fill="#d9b8ff" font-family="sans-serif" font-size="11" textLength="52">: datetime</text><text x="18" y="178.41" fill="#d9b8ff" font-family="sans-serif" font-size="11" font-weight="bold" textLength="36">mtime</text><text x="54" y="178.41" fill="#d9b8ff" font-family="sans-serif" font-size="11" textLength="52">: datetime</text><text x="18" y="201.365" fill="#d9b8ff" font-family="sans-serif" font-size="11" font-weight="bold" textLength="31">atime</text><text x="49" y="201.365" fill="#d9b8ff" font-family="sans-serif" font-size="11" textLength="52">: datetime</text></svg>
